X:61
T: Arra gyere, amerre én...
K: F
M: 4/4
L: 1/4
g g d d | g f/g/ a2 | 
agfg | g f/e/ d2 | 
ccGG | c B/c/ d2 | 
dcBd | c B/A/ G2 | 

